X:4
T:Passe-pid po l'rawete
B:Suite d'Habiemont
O:Wallonie
M:3/4
R:passe-pied
L:1/8
Q:C4=92
K:G
D2 |: B2 BA GB | d2 dc Bd | c2 cB Ac | B2 G z D2 |
B2 BA GB | d2 dc Bd | c2 AG FA |1 G3 z D2 :|2 G3 z d2 |
|: c2 Ac Ac | B2 GB GB | A2 FA FA | d2 B2 d2 |
c2 Ac Ac | B2 GB GB | AG FD FA |1 G3 z d2 :|2 G3 z ||
